X: 25777
T: Maša And The Wolf
R: jig
M: 6/8
K: Dmixolydian
~c3 ~B3|~A3 AGE|~G3 GAG|~G3 GED|
~c3 ~B3|~A3 AGE|~G3 GBA|1 G3 GAB:|2 G3 GBd||
g2g ged|~B3 BAG|~A3 AGA|B3 GBd|
g2g ged|~B3 BAG|~A3 ABA|G3 GBd|
g2g gdB|g2g gdB|~A3 AGA|B3 GBd|
~g3 ~f3|~e3 edB|~A3 B2A|G3 z3||

